img/homebase/homebase.svg

<svg fill="none" height="500" viewBox="0 0 800 500" width="800" xmlns="http://www.w3.org/2000/svg"><path d="m0 0h800v500h-800z" fill="#f6ff7f"/><g fill="#000"><path d="m204.807 291.64v-34.209c0-13.31-7.175-22.46-20.796-22.46-6.759 0-12.374 2.703-16.637 8.214v-36.185h-12.374v84.64h12.374v-30.882c0-8.422 4.991-14.037 12.789-14.037 8.215 0 12.27 5.511 12.27 13.829v31.09z"/><path d="m240.141 234.97c-8.111 0-15.078 2.808-20.796 8.319-5.719 5.511-8.631 12.373-8.631 20.484 0 8.11 2.808 14.973 8.527 20.484s12.685 8.319 20.796 8.319c8.214 0 15.077-2.808 20.692-8.319 5.719-5.615 8.526-12.478 8.526-20.692 0-8.11-2.807-14.869-8.526-20.38s-12.582-8.215-20.588-8.215zm-12.166 16.325c3.119-3.431 7.175-5.095 12.062-5.095s8.942 1.664 11.957 5.095c3.12 3.432 4.68 7.591 4.68 12.478s-1.56 9.046-4.576 12.478c-3.015 3.431-7.07 5.095-11.957 5.095s-8.943-1.768-12.062-5.199c-3.119-3.536-4.679-7.695-4.679-12.582s1.56-8.942 4.575-12.27z"/><path d="m324.717 291.64v-30.986c0-8.422 4.679-14.037 12.27-14.037 8.214 0 11.853 5.303 11.853 13.725v31.298h12.374v-34.313c0-13.31-6.759-22.46-20.172-22.46-8.215 0-13.622 2.911-19.34 9.15-3.432-6.135-9.151-9.15-17.157-9.15-6.655 0-12.166 2.911-16.533 8.734v-7.486h-12.062v55.525h12.374v-30.882c0-8.422 4.679-14.141 12.165-14.141 8.215 0 11.958 5.511 11.958 13.829v31.194z"/><path d="m422.005 267.516c.104-.936.208-2.183.208-3.847 0-8.63-2.392-15.493-7.175-20.796-4.784-5.303-11.438-7.903-19.861-7.903-8.006 0-14.661 2.808-19.964 8.423s-8.007 12.373-8.007 20.38c0 8.214 2.808 15.181 8.319 20.692 5.615 5.511 12.582 8.215 20.796 8.215 9.982 0 19.029-4.784 23.708-13.414l-8.942-5.927c-3.016 5.719-8.007 8.631-14.974 8.631-4.263 0-8.006-1.352-11.23-4.056-3.223-2.807-4.887-6.239-4.991-10.398zm-26.828-21.94c7.903 0 14.038 4.783 14.454 12.582h-29.115c1.144-7.591 7.071-12.582 14.661-12.582z"/><path d="m486.602 263.669c0-7.382-2.495-14.037-7.59-19.86-4.991-5.823-11.542-8.734-19.653-8.734-3.223 0-6.654.832-10.294 2.495-3.639 1.56-6.238 3.848-8.006 6.759v-37.329h-12.374v84.64h12.062v-8.526c1.768 2.911 4.471 5.199 8.11 6.862 3.64 1.664 7.071 2.496 10.191 2.496 8.006 0 14.557-2.807 19.756-8.526s7.798-12.478 7.798-20.277zm-41.176-12.373c3.119-3.432 7.175-5.095 12.062-5.095s8.942 1.663 11.958 5.095c3.119 3.431 4.679 7.59 4.679 12.477s-1.56 9.047-4.679 12.478c-3.016 3.327-7.071 4.991-11.958 4.991s-8.943-1.664-12.062-4.991c-3.015-3.431-4.575-7.591-4.575-12.478s1.56-9.046 4.575-12.477z"/><path d="m524.934 253.999c0 3.119-1.767 4.679-5.199 4.679h-6.862c-9.774 0-23.084 4.055-23.084 16.949v.624c0 4.783 1.768 8.734 5.303 11.749 3.535 3.016 8.007 4.576 13.414 4.576 7.486 0 12.893-2.808 16.324-8.527v7.591h12.166v-35.354c0-3.847-.624-7.174-1.871-9.982-3.432-7.59-10.398-11.334-20.797-11.334-11.333 0-19.236 4.679-23.603 14.142l9.462 5.407c2.808-5.927 7.487-8.839 13.83-8.839 6.966 0 10.917 3.744 10.917 8.319zm-.104 15.181c0 8.318-5.407 13.517-13.829 13.517-5.303 0-8.838-3.015-8.838-7.59 0-2.392 1.144-4.263 3.327-5.615 2.288-1.352 4.783-2.08 7.383-2.08h11.957z"/><path d="m564.779 292.576c6.238 0 11.333-1.56 15.181-4.784 3.847-3.223 5.823-7.382 5.823-12.477 0-8.631-6.655-14.661-19.237-17.469-7.175-1.56-10.294-3.431-10.294-7.071 0-3.015 3.951-5.407 7.799-5.407 5.303 0 9.15 2.496 11.645 7.487l9.567-5.407c-3.848-8.318-10.814-12.478-20.796-12.478-5.407 0-10.087 1.56-14.142 4.783-4.055 3.224-6.031 7.279-6.031 12.27 0 3.951 1.352 7.279 3.952 10.086 3.015 3.224 7.694 5.407 13.829 6.655 7.591 1.56 11.438 4.055 11.438 7.279 0 3.743-4.055 6.135-8.734 6.135-5.927 0-10.295-3.016-13.31-8.943l-9.67 5.407c4.263 9.254 11.958 13.934 22.98 13.934z"/><path d="m643.801 267.516c.104-.936.208-2.183.208-3.847 0-8.63-2.392-15.493-7.175-20.796s-11.438-7.903-19.86-7.903c-8.007 0-14.662 2.808-19.965 8.423s-8.006 12.373-8.006 20.38c0 8.214 2.807 15.181 8.318 20.692 5.615 5.511 12.582 8.215 20.796 8.215 9.983 0 19.029-4.784 23.708-13.414l-8.942-5.927c-3.016 5.719-8.007 8.631-14.974 8.631-4.263 0-8.006-1.352-11.229-4.056-3.224-2.807-4.888-6.239-4.991-10.398zm-26.827-21.94c7.902 0 14.037 4.783 14.453 12.582h-29.115c1.144-7.591 7.071-12.582 14.662-12.582z"/></g></svg>

<svg width="800" height="500" viewBox="0 0 800 500" fill="none" xmlns="http://www.w3.org/2000/svg">
<rect width="800" height="500" fill="#F6FF7F"/>
<path d="M204.807 291.64V257.431C204.807 244.121 197.632 234.971 184.011 234.971C177.252 234.971 171.637 237.674 167.374 243.185V207H155V291.64H167.374V260.758C167.374 252.336 172.365 246.721 180.163 246.721C188.378 246.721 192.433 252.232 192.433 260.55V291.64H204.807Z" fill="black"/>
<path d="M240.141 234.97C232.03 234.97 225.063 237.778 219.345 243.289C213.626 248.8 210.714 255.662 210.714 263.773C210.714 271.883 213.522 278.746 219.241 284.257C224.96 289.768 231.926 292.576 240.037 292.576C248.251 292.576 255.114 289.768 260.729 284.257C266.448 278.642 269.255 271.779 269.255 263.565C269.255 255.455 266.448 248.696 260.729 243.185C255.01 237.674 248.147 234.97 240.141 234.97ZM227.975 251.295C231.094 247.864 235.15 246.2 240.037 246.2C244.924 246.2 248.979 247.864 251.994 251.295C255.114 254.727 256.674 258.886 256.674 263.773C256.674 268.66 255.114 272.819 252.098 276.251C249.083 279.682 245.028 281.346 240.141 281.346C235.254 281.346 231.198 279.578 228.079 276.147C224.96 272.611 223.4 268.452 223.4 263.565C223.4 258.678 224.96 254.623 227.975 251.295Z" fill="black"/>
<path d="M324.717 291.64V260.654C324.717 252.232 329.396 246.617 336.987 246.617C345.201 246.617 348.84 251.92 348.84 260.342V291.64H361.214V257.327C361.214 244.017 354.455 234.867 341.042 234.867C332.827 234.867 327.42 237.778 321.702 244.017C318.27 237.882 312.551 234.867 304.545 234.867C297.89 234.867 292.379 237.778 288.012 243.601V236.115H275.95V291.64H288.324V260.758C288.324 252.336 293.003 246.617 300.489 246.617C308.704 246.617 312.447 252.128 312.447 260.446V291.64H324.717Z" fill="black"/>
<path d="M422.005 267.516C422.109 266.58 422.213 265.333 422.213 263.669C422.213 255.039 419.821 248.176 415.038 242.873C410.254 237.57 403.6 234.97 395.177 234.97C387.171 234.97 380.516 237.778 375.213 243.393C369.91 249.008 367.206 255.766 367.206 263.773C367.206 271.987 370.014 278.954 375.525 284.465C381.14 289.976 388.107 292.68 396.321 292.68C406.303 292.68 415.35 287.896 420.029 279.266L411.087 273.339C408.071 279.058 403.08 281.97 396.113 281.97C391.85 281.97 388.107 280.618 384.883 277.914C381.66 275.107 379.996 271.675 379.892 267.516H422.005ZM395.177 245.576C403.08 245.576 409.215 250.359 409.631 258.158H380.516C381.66 250.567 387.587 245.576 395.177 245.576Z" fill="black"/>
<path d="M486.602 263.669C486.602 256.287 484.107 249.632 479.012 243.809C474.021 237.986 467.47 235.075 459.359 235.075C456.136 235.075 452.705 235.907 449.065 237.57C445.426 239.13 442.827 241.418 441.059 244.329V207H428.685V291.64H440.747V283.114C442.515 286.025 445.218 288.313 448.857 289.976C452.497 291.64 455.928 292.472 459.048 292.472C467.054 292.472 473.605 289.665 478.804 283.946C484.003 278.227 486.602 271.468 486.602 263.669ZM445.426 251.296C448.545 247.864 452.601 246.201 457.488 246.201C462.375 246.201 466.43 247.864 469.446 251.296C472.565 254.727 474.125 258.886 474.125 263.773C474.125 268.66 472.565 272.82 469.446 276.251C466.43 279.578 462.375 281.242 457.488 281.242C452.601 281.242 448.545 279.578 445.426 276.251C442.411 272.82 440.851 268.66 440.851 263.773C440.851 258.886 442.411 254.727 445.426 251.296Z" fill="black"/>
<path d="M524.934 253.999C524.934 257.118 523.167 258.678 519.735 258.678H512.873C503.099 258.678 489.789 262.733 489.789 275.627V276.251C489.789 281.034 491.557 284.985 495.092 288C498.627 291.016 503.099 292.576 508.506 292.576C515.992 292.576 521.399 289.768 524.83 284.049V291.64H536.996V256.286C536.996 252.439 536.372 249.112 535.125 246.304C531.693 238.714 524.727 234.97 514.328 234.97C502.995 234.97 495.092 239.649 490.725 249.112L500.187 254.519C502.995 248.592 507.674 245.68 514.017 245.68C520.983 245.68 524.934 249.424 524.934 253.999ZM524.83 269.18C524.83 277.498 519.423 282.697 511.001 282.697C505.698 282.697 502.163 279.682 502.163 275.107C502.163 272.715 503.307 270.844 505.49 269.492C507.778 268.14 510.273 267.412 512.873 267.412H524.83V269.18Z" fill="black"/>
<path d="M564.779 292.576C571.017 292.576 576.112 291.016 579.96 287.792C583.807 284.569 585.783 280.41 585.783 275.315C585.783 266.684 579.128 260.654 566.546 257.846C559.371 256.286 556.252 254.415 556.252 250.775C556.252 247.76 560.203 245.368 564.051 245.368C569.354 245.368 573.201 247.864 575.696 252.855L585.263 247.448C581.415 239.13 574.449 234.97 564.467 234.97C559.06 234.97 554.38 236.53 550.325 239.753C546.27 242.977 544.294 247.032 544.294 252.023C544.294 255.974 545.646 259.302 548.246 262.109C551.261 265.333 555.94 267.516 562.075 268.764C569.666 270.324 573.513 272.819 573.513 276.043C573.513 279.786 569.458 282.178 564.779 282.178C558.852 282.178 554.484 279.162 551.469 273.235L541.799 278.642C546.062 287.896 553.757 292.576 564.779 292.576Z" fill="black"/>
<path d="M643.801 267.516C643.905 266.58 644.009 265.333 644.009 263.669C644.009 255.039 641.617 248.176 636.834 242.873C632.051 237.57 625.396 234.97 616.974 234.97C608.967 234.97 602.312 237.778 597.009 243.393C591.706 249.008 589.003 255.766 589.003 263.773C589.003 271.987 591.81 278.954 597.321 284.465C602.936 289.976 609.903 292.68 618.117 292.68C628.1 292.68 637.146 287.896 641.825 279.266L632.883 273.339C629.867 279.058 624.876 281.97 617.909 281.97C613.646 281.97 609.903 280.618 606.68 277.914C603.456 275.107 601.792 271.675 601.689 267.516H643.801ZM616.974 245.576C624.876 245.576 631.011 250.359 631.427 258.158H602.312C603.456 250.567 609.383 245.576 616.974 245.576Z" fill="black"/>
</svg>
